public/images/camera__w130.svg

<?xml version="1.0" encoding="UTF-8" standalone="no"?>
<svg
   xmlns:dc="http://purl.org/dc/elements/1.1/"
   xmlns:cc="http://creativecommons.org/ns#"
   xmlns:rdf="http://www.w3.org/1999/02/22-rdf-syntax-ns#"
   xmlns:svg="http://www.w3.org/2000/svg"
   xmlns="http://www.w3.org/2000/svg"
   xmlns:sodipodi="http://sodipodi.sourceforge.net/DTD/sodipodi-0.dtd"
   xmlns:inkscape="http://www.inkscape.org/namespaces/inkscape"
   width="130"
   height="87"
   viewBox="0 0 34.395834 23.018753"
   version="1.1"
   id="svg851"
   inkscape:version="1.0.2 (e86c8708, 2021-01-15)"
   sodipodi:docname="camera__w130.svg">
  <defs
     id="defs845">
    <inkscape:path-effect
       effect="fillet_chamfer"
       id="path-effect3939"
       is_visible="true"
       lpeversion="1"
       satellites_param="F,0,0,1,0,0,0,1 @ F,0,0,1,0,0,0,1 @ F,0,0,1,0,0,0,1 @ F,0,0,1,0,0,0,1 | F,0,0,1,0,0,0,1 @ F,0,0,1,0,0,0,1 @ F,0,0,1,0,0,0,1 @ F,0,0,1,0,0,0,1 @ F,0,0,1,0,0,0,1 @ F,0,0,1,0,0,0,1 @ F,0,0,1,0,0,0,1 @ F,0,0,1,0,0,0,1 @ F,0,0,1,0,0,0,1 @ F,0,0,1,0,0,0,1 @ F,0,0,1,0,0,0,1 @ F,0,0,1,0,0,0,1 @ F,0,0,1,0,0,0,1 @ F,0,0,1,0,0,0,1 @ F,0,0,1,0,0,0,1 @ F,0,0,1,0,0,0,1 | F,0,0,1,0,0,0,1 @ F,0,0,1,0,0,0,1 @ F,0,0,1,0,0,0,1 @ F,0,0,1,0,0,0,1 | F,0,0,1,0,0,0,1 @ F,0,0,1,0,0,0,1 @ F,0,0,1,0,0,0,1 @ F,0,0,1,0,0,0,1 @ F,0,0,1,0,0,0,1 @ F,0,0,1,0,0,0,1 @ F,0,0,1,0,0,0,1 @ F,0,0,1,0,0,0,1 @ F,0,0,1,0,0,0,1"
       unit="px"
       method="auto"
       mode="F"
       radius="0"
       chamfer_steps="2"
       flexible="true"
       use_knot_distance="true"
       apply_no_radius="true"
       apply_with_radius="true"
       only_selected="false"
       hide_knots="false" />
  </defs>
  <sodipodi:namedview
     id="base"
     pagecolor="#ffffff"
     bordercolor="#666666"
     borderopacity="1.0"
     inkscape:pageopacity="0.0"
     inkscape:pageshadow="2"
     inkscape:zoom="2.8284271"
     inkscape:cx="46.880272"
     inkscape:cy="-24.137271"
     inkscape:document-units="mm"
     inkscape:current-layer="layer1"
     inkscape:document-rotation="0"
     showgrid="true"
     inkscape:object-paths="true"
     inkscape:snap-grids="true"
     inkscape:snap-page="true"
     inkscape:pagecheckerboard="true"
     inkscape:snap-to-guides="true"
     inkscape:snap-intersection-paths="true"
     inkscape:snap-bbox="true"
     inkscape:bbox-paths="true"
     inkscape:bbox-nodes="true"
     inkscape:snap-bbox-edge-midpoints="false"
     inkscape:snap-bbox-midpoints="true"
     inkscape:snap-smooth-nodes="true"
     inkscape:snap-midpoints="true"
     inkscape:snap-center="true"
     inkscape:snap-object-midpoints="true"
     inkscape:snap-nodes="true"
     inkscape:snap-others="true"
     inkscape:snap-global="false"
     inkscape:window-width="1920"
     inkscape:window-height="1009"
     inkscape:window-x="0"
     inkscape:window-y="23"
     inkscape:window-maximized="0"
     units="px">
    <inkscape:grid
       type="xygrid"
       id="grid3719" />
  </sodipodi:namedview>
  <metadata
     id="metadata848">
    <rdf:RDF>
      <cc:Work
         rdf:about="">
        <dc:format>image/svg+xml</dc:format>
        <dc:type
           rdf:resource="http://purl.org/dc/dcmitype/StillImage" />
        <dc:title></dc:title>
      </cc:Work>
    </rdf:RDF>
  </metadata>
  <g
     inkscape:label="Camera Body"
     inkscape:groupmode="layer"
     id="layer1"
     style="display:inline">
    <path
       id="rect3904"
       style="opacity:1;fill:#000000;fill-opacity:1;stroke:#000000;stroke-width:0.649909;stroke-linecap:round;stroke-linejoin:round;stroke-miterlimit:4;stroke-dasharray:none;stroke-opacity:1;paint-order:markers fill stroke"
       d="M 28.783443,0.44943395 V 1.1935107 H 7.1029579 V 0.78058221 H 4.8547755 V 1.1935107 H 0.48922455 v 6.134138 H 12.72375 a 7.074204,7.0742033 0 0 1 4.931963,-2.0312222 7.074204,7.0742033 0 0 1 0.02905,0 7.074204,7.0742033 0 0 1 4.960845,2.0312222 H 34.020525 V 1.1935107 H 29.602246 V 0.44943395 Z M 13.577649,0.50249852 V 1.1906554 h 7.433713 V 0.50249853 Z m 4.107115,6.27956218 a 5.5885497,5.5885497 0 0 0 -5.58855,5.5885493 5.5885497,5.5885497 0 0 0 5.58855,5.58855 5.5885497,5.5885497 0 0 0 5.58855,-5.58855 5.5885497,5.5885497 0 0 0 -5.58855,-5.5885493 z M 0.48922455,8.8158018 V 22.687933 H 34.020525 V 8.8158018 H 23.800767 A 7.074204,7.0742033 0 0 1 24.75878,12.37061 7.074204,7.0742033 0 0 1 17.684764,19.444793 7.074204,7.0742033 0 0 1 10.610579,12.37061 7.074204,7.0742033 0 0 1 11.568592,8.8158018 Z" />
  </g>
</svg>

<?xml version="1.0" encoding="UTF-8"?>
    <svg width="130" height="87" version="1.1" viewBox="0 0 34.396 23.019" xmlns="http://www.w3.org/2000/svg" xmlns:cc="http://creativecommons.org/ns#" xmlns:dc="http://purl.org/dc/elements/1.1/" xmlns:rdf="http://www.w3.org/1999/02/22-rdf-syntax-ns#">
    <g>
        <path d="m28.783 0.44943v0.74408h-21.68v-0.41293h-2.2482v0.41293h-4.3656v6.1341h12.235a7.0742 7.0742 0 0 1 4.932-2.0312 7.0742 7.0742 0 0 1 0.02905 0 7.0742 7.0742 0 0 1 4.9608 2.0312h11.375v-6.1341h-4.4183v-0.74408zm-15.206 0.053065v0.68816h7.4337v-0.68816zm4.1071 6.2796a5.5885 5.5885 0 0 0-5.5886 5.5885 5.5885 5.5885 0 0 0 5.5886 5.5886 5.5885 5.5885 0 0 0 5.5886-5.5886 5.5885 5.5885 0 0 0-5.5886-5.5885zm-17.196 2.0337v13.872h33.531v-13.872h-10.22a7.0742 7.0742 0 0 1 0.95801 3.5548 7.0742 7.0742 0 0 1-7.074 7.0742 7.0742 7.0742 0 0 1-7.0742-7.0742 7.0742 7.0742 0 0 1 0.95801-3.5548z" stroke="#000" stroke-linecap="round" stroke-linejoin="round" stroke-width=".64991" style="paint-order:markers fill stroke"/>
    </g>
</svg>
